Sources/FrostedUI/Resources/Icons.xcassets/pinTiltedFilled16.imageset/pin-tilted-filled-16.svg

<svg width="16" height="16" viewBox="0 0 16 16" fill="none" xmlns="http://www.w3.org/2000/svg" data-fui-icon="true">
  <path
    d="M8.54089 1.83362C9.34143 1.03323 10.6398 1.03323 11.4403 1.83362L14.1981 4.59143C14.9983 5.39189 14.9982 6.68935 14.1981 7.48987L12.0555 9.63245C11.954 9.7342 11.8807 9.8617 11.8436 10.0006L11.12 12.7174C10.7131 14.2432 8.80596 14.7549 7.68933 13.6383L5.57117 11.5211L3.27332 13.819C2.98051 14.1118 2.50568 14.1116 2.21277 13.819C1.91988 13.5261 1.91988 13.0513 2.21277 12.7584L4.51062 10.4606L2.39246 8.34241C1.27592 7.22585 1.78782 5.31887 3.31335 4.91174L6.03113 4.18713C6.17008 4.15004 6.29755 4.07686 6.39929 3.97522L8.54089 1.83362Z"
    fill="currentColor"
  />
</svg>

<svg xmlns="http://www.w3.org/2000/svg" width="16" height="16" fill="none" data-fui-icon="true" viewBox="0 0 16 16"><path fill="currentColor" d="M8.54 1.834c.801-.8 2.1-.8 2.9 0l2.758 2.757c.8.8.8 2.098 0 2.899l-2.142 2.142a.8.8 0 0 0-.212.369l-.724 2.716c-.407 1.526-2.314 2.038-3.43.921L5.57 11.521 3.273 13.82a.75.75 0 0 1-1.06-1.06L4.51 10.46 2.392 8.342c-1.116-1.116-.604-3.023.921-3.43l2.718-.725a.8.8 0 0 0 .368-.212z"/></svg>
